welbex/src/images/welbex-min.svg

<svg width="97" height="15" viewBox="0 0 97 15" fill="none" xmlns="http://www.w3.org/2000/svg">
<g clip-path="url(#clip0_0_32)">
<path fill-rule="evenodd" clip-rule="evenodd" d="M2.00185 0L8.28906 12.5571L7.49834 14.1196L0.169678 0H2.00185ZM22.3871 0L15.1163 14.1196L7.45977 0H9.23407L15.1163 11.051C15.412 10.4861 15.7463 9.83672 16.1191 9.10245C16.492 8.36823 16.8681 7.61205 17.2474 6.8339C17.6267 6.05574 18.0028 5.28701 18.3756 4.52769C18.7484 3.76837 19.086 3.07494 19.3881 2.4474C19.6903 1.81986 19.9442 1.28646 20.1499 0.847178C20.3556 0.407898 20.4906 0.125509 20.5549 0H22.3871ZM36.2619 1.37431V0H26.9275V14.1384H36.2619V12.7642H28.3547V7.7752H34.9505V6.40089H28.3547V1.37431H36.2619ZM40.4167 14.1384V0H41.8438V12.7642H49.7511V14.1384H40.4167ZM53.9058 0V14.1384H60.8294C60.9323 14.1384 61.1606 14.1039 61.5141 14.0349C61.8677 13.9658 62.2502 13.8121 62.6617 13.5737C62.8545 13.4607 63.057 13.3132 63.2691 13.1313C63.4813 12.9492 63.671 12.7265 63.8381 12.4629C64.0053 12.1993 64.1435 11.8887 64.2528 11.5311C64.362 11.1733 64.4167 10.756 64.4167 10.2791C64.4167 9.73941 64.3459 9.26874 64.2046 8.86712C64.0631 8.46549 63.8831 8.12035 63.6645 7.83169C63.4459 7.54301 63.1984 7.31082 62.922 7.13512C62.6455 6.9594 62.366 6.82134 62.083 6.72094C62.366 6.44483 62.6102 6.06517 62.8159 5.58196C63.0216 5.09875 63.1245 4.51828 63.1245 3.84053C63.1245 3.3385 63.0698 2.90551 62.9605 2.54153C62.8513 2.17756 62.7131 1.86379 62.5459 1.60023C62.3787 1.33666 62.1923 1.11702 61.9866 0.941306C61.7809 0.765596 61.5816 0.621263 61.3888 0.508306C61.1702 0.382798 60.9613 0.285531 60.762 0.216501C60.5627 0.147472 60.3827 0.0972684 60.222 0.0658915C60.0612 0.0345144 59.9294 0.0156885 59.8266 0.00941306C59.7237 0.00313766 59.6659 0 59.653 0H53.9058ZM60.7909 12.7642C60.8423 12.7642 60.9838 12.7422 61.2152 12.6982C61.4466 12.6543 61.6942 12.5508 61.9577 12.3877C62.2212 12.2244 62.456 11.9766 62.6617 11.6439C62.8674 11.3114 62.9702 10.8564 62.9702 10.2791C62.9702 9.70172 62.8674 9.24679 62.6617 8.91419C62.456 8.58159 62.2212 8.33058 61.9577 8.16114C61.6942 7.9917 61.4434 7.88502 61.2055 7.8411C60.9677 7.79717 60.8231 7.7752 60.7716 7.7752H55.333V12.7642H60.7909ZM60.0676 6.32559C59.8427 6.3758 59.7044 6.40089 59.653 6.40089H55.333V1.37431H59.653C59.6788 1.37431 59.8008 1.39313 60.0194 1.43078C60.238 1.46844 60.4759 1.56571 60.733 1.72259C60.9902 1.87948 61.2248 2.12422 61.437 2.45681C61.6491 2.78941 61.7552 3.25065 61.7552 3.84053C61.7552 4.41787 61.6556 4.87598 61.4563 5.21484C61.257 5.55372 61.032 5.81101 60.7812 5.98672C60.5306 6.16243 60.2927 6.27539 60.0676 6.32559ZM78.6386 0V1.37431H70.7314V6.40089H77.3272V7.7752H70.7314V12.7642H78.6386V14.1384H69.3043V0H78.6386ZM89.3313 8.11407L94.1529 14.1384H96.0433L90.4307 7.05981L96.0433 0H94.1529L89.3313 6.02437L84.7799 0H82.6392L88.2513 7.05981L82.6392 14.1384H84.7799L89.3313 8.11407Z" fill="#E4E5EA"/>
</g>
<defs>
<clipPath id="clip0_0_32">
<rect width="97" height="15" fill="white"/>
</clipPath>
</defs>
</svg>

<svg width="97" height="15" fill="none" xmlns="http://www.w3.org/2000/svg"><g clip-path="url(#a)"><path fill-rule="evenodd" clip-rule="evenodd" d="m2.002 0 6.287 12.557-.79 1.563L.168 0h1.833zm20.385 0-7.27 14.12L7.46 0h1.774l5.882 11.051a178.163 178.163 0 0 0 2.131-4.217c.38-.778.756-1.547 1.129-2.306.372-.76.71-1.453 1.012-2.08.302-.628.556-1.162.762-1.6.206-.44.34-.722.405-.848h1.832zm13.875 1.374V0h-9.335v14.138h9.335v-1.374h-7.907V7.775h6.595V6.401h-6.595V1.374h7.907zm4.155 12.764V0h1.427v12.764h7.907v1.374h-9.334zM53.906 0v14.138h6.923c.103 0 .332-.034.685-.103.354-.07.736-.223 1.148-.461a4.24 4.24 0 0 0 .607-.443 2.96 2.96 0 0 0 .57-.668c.166-.264.305-.574.414-.932.109-.358.164-.775.164-1.252 0-.54-.071-1.01-.212-1.412a3.786 3.786 0 0 0-.54-1.035 2.854 2.854 0 0 0-.743-.697 4.155 4.155 0 0 0-.839-.414c.283-.276.527-.656.733-1.139.206-.483.308-1.064.308-1.741 0-.503-.054-.935-.163-1.3a3.778 3.778 0 0 0-.415-.94 2.9 2.9 0 0 0-.56-.66 3.702 3.702 0 0 0-1.225-.725c-.198-.069-.378-.119-.539-.15A3.156 3.156 0 0 0 59.653 0h-5.747zm6.885 12.764c.051 0 .193-.022.424-.066a2.22 2.22 0 0 0 .743-.31c.263-.164.498-.411.704-.744.205-.333.308-.788.308-1.365s-.103-1.032-.308-1.365c-.206-.332-.44-.583-.704-.753a2.122 2.122 0 0 0-.752-.32 3.716 3.716 0 0 0-.434-.066h-5.439v4.99h5.458zm-.723-6.438c-.225.05-.364.075-.415.075h-4.32V1.374h4.32c.026 0 .148.02.366.057.219.037.457.135.714.292.257.156.492.401.704.734.212.332.318.794.318 1.384 0 .577-.1 1.035-.299 1.374-.199.339-.424.596-.675.772a2.04 2.04 0 0 1-.713.339zM78.638 0v1.374h-7.907v5.027h6.596v1.374h-6.596v4.99h7.908v1.373h-9.335V0h9.335zm10.693 8.114 4.822 6.024h1.89L90.431 7.06 96.043 0h-1.89L89.33 6.024 84.78 0h-2.14l5.611 7.06-5.612 7.078h2.14l4.552-6.024z" fill="#E4E5EA"/></g><defs><clipPath id="a"><path fill="#fff" d="M0 0h97v15H0z"/></clipPath></defs></svg>
